care/src/image/Frame3.svg

<svg width="66" height="95" viewBox="0 0 66 95" fill="none" xmlns="http://www.w3.org/2000/svg">
<g clip-path="url(#clip0_1_203)">
<path d="M65.5728 90.4482C65.5728 92.9272 63.638 94.942 61.2475 94.942L5.3142 95.0083C3.41138 95.0083 1.79638 93.7398 1.21275 91.9737C1.06084 91.5177 0.98089 91.0368 0.98089 90.5311L0.892944 6.88167C0.892944 4.40261 2.82774 2.38786 5.21826 2.38786L56.5784 2.32982L61.1515 2.32153C63.5421 2.32153 65.4849 4.32799 65.4849 6.80704L65.5728 90.4482Z" fill="url(#paint0_linear_1_203)"/>
<path d="M59.7763 89.9673L6.77723 90.0253C5.49003 90.0253 4.45068 88.9474 4.45068 87.6126L4.37073 9.76697C4.37073 8.43209 5.41008 7.35424 6.69728 7.35424L59.6884 7.2962C60.9756 7.2962 62.0149 8.37405 62.0149 9.70893L62.0949 87.5545C62.1029 88.8811 61.0635 89.9673 59.7763 89.9673Z" fill="white"/>
<path d="M52.333 13.7135L13.677 13.7633C12.3978 13.7633 11.3504 12.6854 11.3504 11.3589L11.3424 4.6762C11.3424 3.34961 12.3818 2.26347 13.661 2.26347L52.325 2.22202C53.6042 2.22202 54.6515 3.29986 54.6515 4.62645L54.6595 11.3091C54.6515 12.6357 53.6122 13.7135 52.333 13.7135ZM13.661 3.49056C13.0374 3.49056 12.5257 4.02119 12.5257 4.6679L12.5337 11.3506C12.5337 11.9973 13.0454 12.5279 13.669 12.5279L52.333 12.4865C52.9566 12.4865 53.4683 11.9558 53.4683 11.3091L53.4603 4.62645C53.4603 3.97974 52.9486 3.44911 52.325 3.44911L13.661 3.49056Z" fill="url(#paint1_linear_1_203)"/>
<path d="M51.2377 5.11564L15.1401 5.1571C14.7403 5.1571 14.4205 4.82545 14.4205 4.41089V0.787659C14.4205 0.373102 14.7403 0.0414557 15.1401 0.0414557L51.2297 0C51.6295 0 51.9493 0.331646 51.9493 0.746203V4.36944C51.9573 4.78399 51.6375 5.11564 51.2377 5.11564Z" fill="url(#paint2_linear_1_203)"/>
<path d="M15.1721 5.15708L51.2058 5.11562C51.6215 5.11562 51.9573 4.7674 51.9573 4.33626V2.56195L14.4126 2.60341V4.37771C14.4126 4.80885 14.7564 5.15708 15.1721 5.15708Z" fill="#58D6F4"/>
<path d="M27.8362 81.2118L24.7182 61.6447L22.1918 70.1597L14.9642 70.168C14.5245 70.168 14.1727 69.8032 14.1727 69.3472C14.1727 68.8912 14.5245 68.5264 14.9642 68.5264L21.0325 68.5181L25.1979 54.4977L28.316 74.1146L32.3614 60.6415L34.5121 67.0257L39.3571 54.846L44.0662 74.1643L45.8411 68.0206L51.0378 68.0123C51.4776 68.0123 51.8294 68.3771 51.8294 68.8331C51.8294 69.2892 51.4776 69.654 51.0378 69.654L47.0163 69.6623L43.9383 80.3164L38.9973 60.0528L34.3842 71.6355L32.4414 65.8732L27.8362 81.2118Z" fill="#58D6F4"/>
<path d="M22.4795 43.4871L12.3178 43.4954C10.6789 43.4954 9.33569 42.1108 9.33569 40.4111L9.3197 25.6777C9.3197 23.978 10.6549 22.5851 12.2939 22.5851L22.4556 22.5768C24.0945 22.5768 25.4377 23.9614 25.4377 25.6611L25.4537 40.3945C25.4537 42.0942 24.1185 43.4788 22.4795 43.4871ZM12.2859 23.4806C11.1186 23.4806 10.1752 24.4672 10.1752 25.6777L10.1912 40.4111C10.1912 41.6216 11.1426 42.5999 12.3098 42.5999L22.4715 42.5917C23.6388 42.5917 24.5822 41.605 24.5822 40.3945L24.5662 25.6611C24.5662 24.4506 23.6148 23.4723 22.4476 23.4723L12.2859 23.4806Z" fill="url(#paint3_linear_1_203)"/>
<path d="M17.3867 40.6598C22.1918 40.6515 23.6868 37.7745 23.6868 37.7745C23.471 37.4926 23.1991 37.2439 22.8314 36.9951C21.5681 36.1411 20.5528 35.7763 20.129 35.4115C19.6973 35.055 19.4574 34.5327 19.4574 34.5327L19.1936 34.6985C19.1936 34.6985 19.0337 34.1264 19.1217 33.2558C19.1217 33.2558 19.4974 33.1563 19.7773 31.838C20.225 31.9292 20.7526 30.7519 20.5048 30.3207C20.3449 30.0388 20.153 30.0637 20.0171 30.1301C20.153 29.5414 20.7686 26.283 17.3787 26.283C13.9888 26.283 14.6045 29.5414 14.7484 30.1301C14.6125 30.0637 14.4206 30.0388 14.2607 30.3207C14.0128 30.7519 14.5485 31.9292 14.9962 31.838C15.276 33.1563 15.6598 33.2475 15.6598 33.2475C15.7557 34.1098 15.5878 34.6902 15.5878 34.6902L15.324 34.5244C15.324 34.5244 15.0842 35.0384 14.6524 35.4032C14.2207 35.768 13.2133 36.1411 11.9501 36.9951C11.5823 37.2439 11.3025 37.4926 11.0946 37.7745C11.0866 37.7911 12.5897 40.6681 17.3867 40.6598Z" fill="url(#paint4_linear_1_203)"/>
<path d="M49.031 27.2779L29.4672 27.3028C29.0994 27.3028 28.8036 26.996 28.8036 26.6146V26.4985C28.8036 26.1171 29.0994 25.8104 29.4672 25.8104L49.031 25.7855C49.3988 25.7855 49.6946 26.0923 49.6946 26.4737V26.5897C49.6946 26.9711 49.3908 27.2779 49.031 27.2779Z" fill="url(#paint5_linear_1_203)"/>
<path d="M41.8355 31.1416L29.4672 31.1582C29.0994 31.1582 28.8036 30.8514 28.8036 30.47V30.3539C28.8036 29.9725 29.0994 29.6657 29.4672 29.6657L41.8355 29.6491C42.2033 29.6491 42.4991 29.9559 42.4991 30.3373V30.4534C42.4991 30.8348 42.2033 31.1416 41.8355 31.1416Z" fill="url(#paint6_linear_1_203)"/>
<path opacity="0.6" d="M55.7789 35.7349L29.4752 35.768C29.1075 35.768 28.8116 35.4613 28.8116 35.0799V34.9638C28.8116 34.5824 29.1075 34.2756 29.4752 34.2756L55.7789 34.2425C56.1467 34.2425 56.4425 34.5492 56.4425 34.9306V35.0467C56.4345 35.4281 56.1387 35.7349 55.7789 35.7349Z" fill="url(#paint7_linear_1_203)"/>
<path opacity="0.6" d="M55.2112 48.6442L11.3344 48.6939C10.9587 48.6939 10.6469 48.3789 10.6469 47.9809V47.9146C10.6469 47.5249 10.9507 47.2015 11.3344 47.2015L55.2112 47.1518C55.587 47.1518 55.8988 47.4668 55.8988 47.8648V47.9311C55.8988 48.3291 55.587 48.6442 55.2112 48.6442Z" fill="url(#paint8_linear_1_203)"/>
<path opacity="0.6" d="M55.7789 40.2452L29.4752 40.2784C29.1075 40.2784 28.8116 39.9716 28.8116 39.5902V39.4742C28.8116 39.0928 29.1075 38.786 29.4752 38.786L55.7789 38.7528C56.1467 38.7528 56.4425 39.0596 56.4425 39.441V39.5571C56.4425 39.9385 56.1467 40.2452 55.7789 40.2452Z" fill="url(#paint9_linear_1_203)"/>
</g>
<defs>
<linearGradient id="paint0_linear_1_203" x1="-8.064" y1="34.748" x2="75.0867" y2="60.8004" gradientUnits="userSpaceOnUse">
<stop stop-color="#6CBCFC"/>
<stop offset="0.1713" stop-color="#5EABFC"/>
<stop offset="0.4084" stop-color="#509AFC"/>
<stop offset="0.6698" stop-color="#4890FC"/>
<stop offset="1" stop-color="#458DFC"/>
</linearGradient>
<linearGradient id="paint1_linear_1_203" x1="-4.14548" y1="-21.375" x2="55.4401" y2="6.2951" gradientUnits="userSpaceOnUse">
<stop stop-color="#CFE9FF"/>
<stop offset="1" stop-color="#A1D6FB"/>
</linearGradient>
<linearGradient id="paint2_linear_1_203" x1="14.4114" y1="2.57952" x2="51.9566" y2="2.57952" gradientUnits="userSpaceOnUse">
<stop stop-color="#B0F4FF"/>
<stop offset="1" stop-color="#69DCFC"/>
</linearGradient>
<linearGradient id="paint3_linear_1_203" x1="14.5231" y1="29.2076" x2="24.3869" y2="41.486" gradientUnits="userSpaceOnUse">
<stop stop-color="#6CBCFC"/>
<stop offset="1" stop-color="#458DFC"/>
</linearGradient>
<linearGradient id="paint4_linear_1_203" x1="13.5002" y1="30.0293" x2="23.364" y2="42.3079" gradientUnits="userSpaceOnUse">
<stop stop-color="#B0F4FF"/>
<stop offset="0.0994384" stop-color="#A1EFFE"/>
<stop offset="0.2994" stop-color="#88E7FD"/>
<stop offset="0.5095" stop-color="#77E1FD"/>
<stop offset="0.7344" stop-color="#6CDDFC"/>
<stop offset="1" stop-color="#69DCFC"/>
</linearGradient>
<linearGradient id="paint5_linear_1_203" x1="28.8047" y1="26.5509" x2="49.6904" y2="26.563" gradientUnits="userSpaceOnUse">
<stop stop-color="#6CBCFC"/>
<stop offset="1" stop-color="#458DFC"/>
</linearGradient>
<linearGradient id="paint6_linear_1_203" x1="28.8085" y1="30.4037" x2="42.4983" y2="30.4037" gradientUnits="userSpaceOnUse">
<stop stop-color="#6CBCFC"/>
<stop offset="1" stop-color="#458DFC"/>
</linearGradient>
<linearGradient id="paint7_linear_1_203" x1="28.8131" y1="35.0098" x2="56.438" y2="35.0098" gradientUnits="userSpaceOnUse">
<stop stop-color="#6CBCFC"/>
<stop offset="1" stop-color="#458DFC"/>
</linearGradient>
<linearGradient id="paint8_linear_1_203" x1="10.6465" y1="47.9272" x2="55.8965" y2="47.9272" gradientUnits="userSpaceOnUse">
<stop stop-color="#6888C8"/>
<stop offset="1" stop-color="#458DFC"/>
</linearGradient>
<linearGradient id="paint9_linear_1_203" x1="28.8176" y1="39.5191" x2="56.4425" y2="39.5191" gradientUnits="userSpaceOnUse">
<stop stop-color="#6CBCFC"/>
<stop offset="1" stop-color="#458DFC"/>
</linearGradient>
<clipPath id="clip0_1_203">
<rect width="64.6799" height="95" fill="white" transform="translate(0.892944)"/>
</clipPath>
</defs>
</svg>

<svg width="66" height="95" fill="none" xmlns="http://www.w3.org/2000/svg"><g clip-path="url(#a)"><path d="M65.573 90.448c0 2.48-1.935 4.494-4.325 4.494l-55.934.066c-1.903 0-3.518-1.268-4.101-3.034A4.536 4.536 0 0 1 .98 90.53L.893 6.881c0-2.478 1.935-4.493 4.325-4.493l51.36-.058 4.573-.008c2.391 0 4.334 2.006 4.334 4.485l.088 83.641z" fill="url(#b)"/><path d="m59.776 89.967-52.999.058c-1.287 0-2.326-1.078-2.326-2.412L4.37 9.767c0-1.335 1.04-2.413 2.326-2.413l52.991-.058c1.288 0 2.327 1.078 2.327 2.413l.08 77.846c.008 1.326-1.032 2.412-2.319 2.412z" fill="#fff"/><path d="m52.333 13.713-38.656.05c-1.28 0-2.327-1.078-2.327-2.404l-.008-6.683c0-1.326 1.04-2.413 2.319-2.413l38.664-.041c1.28 0 2.326 1.078 2.326 2.404l.008 6.683c-.008 1.327-1.047 2.405-2.326 2.405zM13.661 3.492c-.624 0-1.135.53-1.135 1.177l.008 6.683c0 .646.511 1.177 1.135 1.177l38.664-.042c.624 0 1.135-.53 1.135-1.177l-.008-6.683c0-.646-.511-1.177-1.135-1.177l-38.664.042z" fill="url(#c)"/><path d="m51.238 5.116-36.098.041a.73.73 0 0 1-.72-.746V.788a.73.73 0 0 1 .72-.747L51.23 0c.4 0 .72.332.72.746V4.37a.719.719 0 0 1-.712.747z" fill="url(#d)"/><path d="m15.172 5.157 36.034-.041a.765.765 0 0 0 .751-.78V2.562l-37.544.041v1.775c0 .43.343.78.76.78zM27.836 81.212l-3.118-19.567-2.526 8.515-7.228.008c-.44 0-.791-.365-.791-.82 0-.457.351-.822.791-.822l6.068-.008 4.166-14.02 3.118 19.617 4.045-13.473 2.151 6.384 4.845-12.18 4.71 19.318 1.774-6.143 5.197-.009c.44 0 .791.365.791.821 0 .456-.351.821-.791.821l-4.022.008-3.078 10.654-4.94-20.263-4.614 11.582-1.943-5.762-4.605 15.339z" fill="#58D6F4"/><path d="m22.48 43.487-10.162.008c-1.64 0-2.982-1.384-2.982-3.084L9.32 25.678c0-1.7 1.335-3.093 2.974-3.093l10.162-.008c1.639 0 2.982 1.384 2.982 3.084l.016 14.733c0 1.7-1.335 3.085-2.974 3.093zM12.286 23.481c-1.167 0-2.11.986-2.11 2.197l.015 14.733c0 1.21.952 2.189 2.119 2.189l10.161-.008c1.168 0 2.111-.987 2.111-2.197l-.016-14.734c0-1.21-.951-2.189-2.118-2.189l-10.162.009z" fill="url(#e)"/><path d="M17.387 40.66c4.805-.008 6.3-2.885 6.3-2.885a3.533 3.533 0 0 0-.856-.78c-1.263-.854-2.278-1.219-2.702-1.584-.432-.356-.672-.878-.672-.878l-.263.166s-.16-.573-.072-1.443c0 0 .375-.1.655-1.418.448.091.976-1.086.728-1.517-.16-.282-.352-.257-.488-.19.136-.59.752-3.848-2.638-3.848-3.39 0-2.775 3.258-2.63 3.847-.136-.066-.328-.091-.488.19-.248.432.288 1.61.735 1.518.28 1.318.664 1.41.664 1.41.096.862-.072 1.442-.072 1.442l-.264-.166s-.24.514-.672.88c-.431.364-1.439.737-2.702 1.591-.368.249-.647.498-.855.78-.008.016 1.495 2.893 6.292 2.885z" fill="url(#f)"/><path d="m49.031 27.278-19.564.025a.675.675 0 0 1-.663-.688v-.116c0-.382.295-.689.663-.689l19.564-.024c.368 0 .664.306.664.688v.116a.68.68 0 0 1-.664.688z" fill="url(#g)"/><path d="m41.836 31.142-12.369.016a.675.675 0 0 1-.663-.688v-.116c0-.381.295-.688.663-.688l12.369-.017c.367 0 .663.307.663.688v.116a.675.675 0 0 1-.663.689z" fill="url(#h)"/><path opacity=".6" d="m55.779 35.735-26.304.033a.675.675 0 0 1-.663-.688v-.116c0-.382.296-.688.663-.688l26.304-.034c.368 0 .663.307.663.689v.116c-.008.381-.303.688-.663.688z" fill="url(#i)"/><path opacity=".6" d="m55.211 48.644-43.877.05a.7.7 0 0 1-.687-.713v-.066a.7.7 0 0 1 .687-.713l43.877-.05a.7.7 0 0 1 .688.713v.066a.7.7 0 0 1-.688.713z" fill="url(#j)"/><path opacity=".6" d="m55.779 40.245-26.304.033a.675.675 0 0 1-.663-.688v-.116c0-.381.296-.688.663-.688l26.304-.033c.368 0 .663.307.663.688v.116a.674.674 0 0 1-.663.688z" fill="url(#k)"/></g><defs><linearGradient id="g" x1="28.805" y1="26.551" x2="49.69" y2="26.563" gradientUnits="userSpaceOnUse"><stop stop-color="#6CBCFC"/><stop offset="1" stop-color="#458DFC"/></linearGradient><linearGradient id="b" x1="-8.064" y1="34.748" x2="75.087" y2="60.8" gradientUnits="userSpaceOnUse"><stop stop-color="#6CBCFC"/><stop offset=".171" stop-color="#5EABFC"/><stop offset=".408" stop-color="#509AFC"/><stop offset=".67" stop-color="#4890FC"/><stop offset="1" stop-color="#458DFC"/></linearGradient><linearGradient id="d" x1="14.411" y1="2.58" x2="51.957" y2="2.58" gradientUnits="userSpaceOnUse"><stop stop-color="#B0F4FF"/><stop offset="1" stop-color="#69DCFC"/></linearGradient><linearGradient id="e" x1="14.523" y1="29.208" x2="24.387" y2="41.486" gradientUnits="userSpaceOnUse"><stop stop-color="#6CBCFC"/><stop offset="1" stop-color="#458DFC"/></linearGradient><linearGradient id="f" x1="13.5" y1="30.029" x2="23.364" y2="42.308" gradientUnits="userSpaceOnUse"><stop stop-color="#B0F4FF"/><stop offset=".099" stop-color="#A1EFFE"/><stop offset=".299" stop-color="#88E7FD"/><stop offset=".509" stop-color="#77E1FD"/><stop offset=".734" stop-color="#6CDDFC"/><stop offset="1" stop-color="#69DCFC"/></linearGradient><linearGradient id="c" x1="-4.145" y1="-21.375" x2="55.44" y2="6.295" gradientUnits="userSpaceOnUse"><stop stop-color="#CFE9FF"/><stop offset="1" stop-color="#A1D6FB"/></linearGradient><linearGradient id="h" x1="28.808" y1="30.404" x2="42.498" y2="30.404" gradientUnits="userSpaceOnUse"><stop stop-color="#6CBCFC"/><stop offset="1" stop-color="#458DFC"/></linearGradient><linearGradient id="i" x1="28.813" y1="35.01" x2="56.438" y2="35.01" gradientUnits="userSpaceOnUse"><stop stop-color="#6CBCFC"/><stop offset="1" stop-color="#458DFC"/></linearGradient><linearGradient id="j" x1="10.646" y1="47.927" x2="55.897" y2="47.927" gradientUnits="userSpaceOnUse"><stop stop-color="#6888C8"/><stop offset="1" stop-color="#458DFC"/></linearGradient><linearGradient id="k" x1="28.818" y1="39.519" x2="56.443" y2="39.519" gradientUnits="userSpaceOnUse"><stop stop-color="#6CBCFC"/><stop offset="1" stop-color="#458DFC"/></linearGradient><clipPath id="a"><path fill="#fff" transform="translate(.893)" d="M0 0h64.68v95H0z"/></clipPath></defs></svg>
